X: 26695
T: Mike Coogan's
R: polka
M: 2/4
K: Eminor
e>d|:BE FD|ED B,A,|B,E EF/E/|D2 e>d|
BE (3FED|ED B,A,|B,E EF|1 E2 e>d:|2 E2 DE/F/||
K:G
G>F G>B|d>e dB|G>F GB/d/|ef/e/ dB/A/|
G>F G>B|de dB/A/|GE F/E/D|E2 DE/F/|
G>F G>B|d>e dB/A/|G>F GB/d/|ef/e/ dB/d/|
ed BG|A/B/G AB|eE F/E/D|E2 e>d||

